!!!!SEGMENT: pl-kk--kk-i-6--059_anonim--deo-gratias.krn
!!!cenid: 16xx:1055
!!!COM: Anonim
!!!COM-rismid: pe30004985
!!!CDT:
!!!CNT:
!!!OTL: Deo gratias
!!!PDT:
!!!AGN:
!!!SMS-siglum: PL-Kk
!!!SMS-shelfmark: Kk.I.6
!!!SMS-shelfwork: 059 W
!!!SMS-variant:
!!!SMS-altvar:
!!!NIFC-rismid: 1001136567
!!!URL-scan: http://repozytorium.nifc.pl/skany/pl-kk-nut--i-6
!!!ONB-nifc: UWAGA: C (skan 0087, s. 171), T (skan 0198, s. 201), B (skan 0311, s. 205) Per Octavas
!!!key:
**kern	**text	**kern	**text	**kern	**text
*group1	*	*group1	*	*group1	*
*part3	*part3	*part2	*part2	*part1	*part1
*staff3	*staff3	*staff2	*staff2	*staff1	*staff1
*Iempty	*	*Itenor	*	*Ivox	*
*I"Baſsus.	*	*I"Tenor.	*	*I"Cantus.	*
*I'[B]	*	*I'[T]	*	*I'[S]	*
*clefF4	*	*clefC4	*	*clefC4	*
*k[]	*	*k[]	*	*k[]	*
*G:	*	*G:	*	*G:	*
*M2/2	*	*M2/2	*	*M2/2	*
*met(C|)	*	*met(C|)	*	*met(C|)	*
=1-	=1-	=1-	=1-	=1-	=1-
!LO:TX:t=P:problem:2\middle:problem	!	!	!	!	!
!LO:TX:t=P:problem:4\middle:problem	!	!	!	!	!
!LO:TX:t=P:problem:4/middle:problem	!	!	!	!	!
2.G\	De-	1.d	De-	1G	De-
4F\	.	.	.	.	.
=2-	=2-	=2-	=2-	=2-	=2-
*	*	*	*	*lig	*
4D/	.	.	.	1A	-o
4E\	.	.	.	.	.
!	!	!LO:TX:t=P:problem:4\middle:problem	!	!	!
!	!	!LO:TX:t=P:problem:4/middle:problem	!	!	!
2F\	.	4c\	.	.	.
.	.	4d\	.	.	.
=3-	=3-	=3-	=3-	=3-	=3-
!	!	!LO:TX:t=P:problem:2\middle:problem	!	!	!
2E\	.	2e\	.	1B	.
2G\	.	4d\	.	.	.
.	.	4c\	.	.	.
*	*	*	*	*Xlig	*
=4-	=4-	=4-	=4-	=4-	=4-
*	*	*	*	*lig	*
1D	-o	1d	-o	1A	.
!LO:SIC:v:t=custos C	!	!	!	!	!
!LO:LB:g=original	!	!	!	!	!
=5-	=5-	=5-	=5-	=5-	=5-
4C/	gra-	2.G/	gra-	1c	.
4D/	.	.	.	.	.
4E\	.	.	.	.	.
4F\	.	4A/	.	.	.
!	!	!LO:SIC:v:t=custos B	!	!	!
!	!	!LO:LB:g=original	!	!	!
*	*	*	*	*Xlig	*
=6-	=6-	=6-	=6-	=6-	=6-
2G\	.	4B\	.	1B	.
.	.	4A\	.	.	.
2GG/	.	4G/	.	.	.
.	.	4F/	.	.	.
=7-	=7-	=7-	=7-	=7-	=7-
2AA/	.	2.E/	.	1A	.
2C/	.	.	.	.	.
.	.	4F/	.	.	.
=8-	=8-	=8-	=8-	=8-	=8-
1BB	.	2G/	.	1G	.
.	.	2D/	.	.	.
=9-	=9-	=9-	=9-	=9-	=9-
2AA/	-ti-	2E/	.	0A	.
2D/	-as.	2F/	.	.	.
=10-	=10-	=10-	=10-	=10-	=10-
!LO:TX:t=P:problem:brak podpisanego dalej tekstu	!	!	!	!	!
2C/	.	2E/	.	.	.
2D/	.	2D/	.	.	.
=11-	=11-	=11-	=11-	=11-	=11-
4GG/	.	2d\	.	1G	.
4AA/	.	.	.	.	.
4BB/	.	4c\	.	.	.
4C/	.	4B\	.	.	.
!LO:SIC:v:t=custos D	!	!	!	!	!
!LO:LB:g=original	!	!	!	!	!
=12-	=12-	=12-	=12-	=12-	=12-
1D	.	0A	-ti-	1F	.
!	!	!	!	!LO:SIC:v:t=custos E	!
!	!	!	!	!LO:LB:g=original	!
=13-	=13-	=13-	=13-	=13-	=13-
1AA	.	.	.	1E	.
=14-	=14-	=14-	=14-	=14-	=14-
2r	.	1G	-as	1D	.
2D/	.	.	.	.	.
=15-	=15-	=15-	=15-	=15-	=15-
*	*	*	*	*lig	*
2BB/	.	0r	.	1D	gra-
2.E\	.	.	.	.	.
=16-	=16-	=16-	=16-	=16-	=16-
.	.	.	.	1A	.
4D/	.	.	.	.	.
4AA/	.	.	.	.	.
4BB/	.	.	.	.	.
*	*	*	*	*Xlig	*
=17-	=17-	=17-	=17-	=17-	=17-
4C/	.	2r	.	1G	.
4D/	.	.	.	.	.
*	*	*	*ij	*	*
2E\	.	2E/	De-	.	.
!	!	!LO:SIC:v:t=custos F	!	!	!
!	!	!LO:LB:g=original	!	!	!
=18-	=18-	=18-	=18-	=18-	=18-
2D/	.	2F/	-o	1A	.
2C/	.	2C/	gra-	.	.
=19-	=19-	=19-	=19-	=19-	=19-
1BB	.	4D/	.	1B	.
.	.	4E/	.	.	.
.	.	4F/	.	.	.
.	.	4G/	.	.	.
=20-	=20-	=20-	=20-	=20-	=20-
2AA/	.	1A	-ti-	1c	.
1A\	.	.	.	.	.
=21-	=21-	=21-	=21-	=21-	=21-
.	.	1E	-as	1B	.
*	*	*	*Xij	*	*
2G\	.	.	.	.	.
=22-	=22-	=22-	=22-	=22-	=22-
2F\	.	1r	.	1A	.
2D/	.	.	.	.	.
!LO:SIC:v:t=custos E	!	!	!	!	!
!LO:LB:g=original	!	!	!	!	!
=23-	=23-	=23-	=23-	=23-	=23-
1E	.	2r	.	1G	.
*	*	*	*ij	*	*
.	.	2e\	De-	.	.
=24-	=24-	=24-	=24-	=24-	=24-
2D/	.	2f\	-o	1F	.
2F\	.	1d\	gra-	.	.
=25-	=25-	=25-	=25-	=25-	=25-
*	*	*	*	*lig	*
1E	.	.	.	1G	.
.	.	2c\	.	.	.
=26-	=26-	=26-	=26-	=26-	=26-
1D	.	0d	-ti-	1A	.
*	*	*	*	*Xlig	*
=27-	=27-	=27-	=27-	=27-	=27-
1GG	.	.	.	1G	-ti-
=28-	=28-	=28-	=28-	=28-	=28-
1.C	.	1c	-as	[0El;;	-as.
!	!	!LO:SIC:v:t=custos G	!	!	!
!	!	!LO:LB:g=original	!	!	!
*	*	*	*Xij	*	*
=29-	=29-	=29-	=29-	=29-	=29-
.	.	2r	.	.	.
*	*	*	*ij	*	*
2BB/	.	2G/	De-	.	.
=30-	=30-	=30-	=30-	=30-	=30-
2AA/	.	2A/	-o	0E_	.
2GG/	.	2B\	gra-	.	.
=31-	=31-	=31-	=31-	=31-	=31-
1AA	.	2c\	.	.	.
.	.	2A/	ti-	.	.
=32-	=32-	=32-	=32-	=32-	=32-
0EE;;	.	0G;;	-as	0E]	.
*	*	*	*Xij	*	*
=-	=-	=-	=-	=-	=-
*-	*-	*-	*-	*-	*-
!!!system-decoration: [(g1)]
!!!AIN: 1 empty 1 tenor 1 vox
!!!ENC: Filip Voros
!!!END: 2021-10-25
!!!EED: Jędrzej Mróz
!!!ESR: 2021-10-27
!!!RDF**kern: > = above
!!!RDF**kern: < = below
!!!RDF**kern: l = terminal long
